!!!SOCIAL_FUNCTION:	songs for success in hunting
!!!PDT:	1956
!!!OTL: No_208_Song_for_Success_in_Hunting_(a).krn
!!!LANG: Non-Tone
!!!LING_GROUP: Muskogean
!!!REG: Florida
**kern
*staff1
=1-
*clefF4
*k[f#c#]
*M2/4
4r
8.r
16A\
=2
8G\L
24G\L
24G\
24G\JJ
4G\
=3
8D\L
16D\L
16D\JJ
8.D\L
16A\Jk
=4
8G\L
24G\L
24G\
24G\JJ
8D\
16r
16D\
=5||
*M3/8
8D\L
[8D\
16D\L]
16G\JJ
=6||
*M2/4
24F#\LL
[24F#\
24F#\]
24F#\J
12F#\J
8D\
16r
16D\
=7||
*M3/8
8D\L
[8D\
16D\L]
16A\JJ
=8||
*M2/4
8A\L
24G\K
12F#\J
4G\
=9
8D\L
16D\L
16D\JJ
8.D\L
16G\Jk
=10
24F#\LL
[24F#\
24F#\]
24F#\
24F#\
24F#\JJ
8D\
16r
16D\
=11||
*M3/8
8D\L
[8D\
16D\L]
16G\JJ
=12||
*M2/4
24F#\LL
[24F#\
24F#\]
24F#\J
12F#\J
8D\
16r
16D\
=13||
*M3/8
8D\L
[8D\
16D\L]
16F#\JJ
=14||
*M2/4
24F#\LL
[24F#\
24F#\]
24F#\
24F#\
24F#\JJ
4F#\
=15
8D\L
16D\L
16D\JJ
8.D\L
16G\Jk
=16
8F#\L
24F#\K
12F#\J
8D\
16r
16D\
=17||
*M3/8
8D\L
[8D\
16D\L]
16G\JJ
=18||
*M2/4
24F#\LL
[24F#\
24F#\]
24F#\
24F#\
24F#\JJ
8D\
16r
16D\
=19||
*M3/4
8D\L
[8D\J
4D\]
8F#\L
8D\J
=20
[2F#\
(8F#/L]
8AA/J)
=21
16BB/LL
16BB/J
8AA/J
8BB/L
8AA/J
4r
==
*-
